X: 81
T:Bonnie Dundee. WI.081
M:6/8
Q:110
S:Wm Irwin, Folio MS, c1850. AGG's Transcription
R:Jig
O:England
A:Lake District
Z:vmp.Chris Partington.2005
K:G
B/c/|d>ed d>ed|gfe d2c|B<dD B<dD|B>AA A2B/c/|!
d>ed d>ed|gfe d2c|B<dD B<dD|A>GG G2D||!
G>FG BAG|ADD D2D|A>^GA cBA|cBB B2G|!
BAB cBc|dcd e2(d/c/)|B<dD A<dD|G>GG G2|]
